X: 160
T: Swannanoa Waltz
C:Rayna Gellert
B: canberra pickers and fiddlers
B: old time tunes update
B: tunes
M:3/4
L:1/8
R: waltz
Q: 1/4=100
K:D
V:1 
%D:
DE |\
"D"F2 F2 ED | "G"B,2 B,2 B,A, | "D"F3 F ED | "(A)"A2 AF DE |\
"D"F2 F2 ED | "G"B,2 B,2 B,A, | "A7"E2 EF F{GF}E |1 "D"D2 DA, :|2 "D"D2 DD AB ||
|:\
"D"d2 g2 f2 | "G"B4 {=cB}AB | "D"d2 g2 f2 | "(A)"a2 af dB |\
"D"d2 g2 f2 | "G"B4 {=cB}AB | "A7"d(g f)(d A)B |1 "D"d3 B AB :|2 "D"d4 |]
% abcbook-tune_id 67a7d9ec47620dc5c2725b57
% abcbook-tune_composer_id 
% abcbook-link-0 https://www.youtube.com/watch?v=BrNdEIFrIp4
% abcbook-link-title-0 Swannanoa Waltz
% abcbook-boost 0
% abcbook-difficulty 0
% abcbook-tags old time tunes
% abcbook-tablature 
% abcbook-transpose 
% abcbook-tuning ADAE
% abcbook-lastupdated 1739099110064
% abcbook-src-url 
% abcbook-soundfonts 
% abcbook-repeats 1


